src/components/Careers/Benefits/images/coworking-credit.svg

<svg xmlns="http://www.w3.org/2000/svg" width="63" height="63" fill="none" viewBox="0 0 63 63"><ellipse cx="31.311" cy="55.943" fill="#F73C01" fill-opacity=".2" rx="30.594" ry="6.119"/><path stroke="#F73C01" stroke-opacity=".6" stroke-width="1.748" d="M61.0301 55.9427C61.0301 56.0472 60.981 56.2485 60.6717 56.5507C60.3609 56.8544 59.8557 57.1893 59.1263 57.5342C57.672 58.2219 55.5116 58.8643 52.7721 59.4122C47.3074 60.5051 39.7191 61.1873 31.3105 61.1873C22.9019 61.1873 15.3136 60.5051 9.84891 59.4122C7.10937 58.8643 4.94903 58.2219 3.49466 57.5342C2.76525 57.1893 2.26007 56.8544 1.94933 56.5507C1.64004 56.2485 1.5909 56.0472 1.5909 55.9427C1.5909 55.8382 1.64004 55.637 1.94933 55.3347C2.26007 55.031 2.76525 54.6961 3.49466 54.3512C4.94903 53.6635 7.10937 53.0212 9.84891 52.4732C15.3136 51.3803 22.9019 50.6981 31.3105 50.6981C39.7191 50.6981 47.3074 51.3803 52.7721 52.4732C55.5116 53.0212 57.672 53.6635 59.1263 54.3512C59.8557 54.6961 60.3609 55.031 60.6717 55.3347C60.981 55.637 61.0301 55.8382 61.0301 55.9427Z"/><path stroke="#F73C01" stroke-opacity=".6" stroke-width="4.371" d="M51.7939 9.17822H53.4846C55.4722 9.17822 57.37 10.0058 58.7224 11.4623V11.4623C60.8425 13.7455 61.2394 17.139 59.7032 19.8498L55.3679 27.5004C55.0271 28.1019 54.5913 28.6443 54.0774 29.1068L53.5475 29.5838C51.733 31.2168 49.0564 31.4505 46.9863 30.1568V30.1568"/><ellipse cx="31.252" cy="5.682" fill="#F73C01" fill-opacity=".2" rx="20.541" ry="5.682"/><path stroke="#F73C01" stroke-opacity=".6" stroke-width="1.748" d="M50.9198 5.68169C50.9198 6.00914 50.6702 6.52807 49.7013 7.16169C48.7687 7.77151 47.3615 8.35417 45.5444 8.85677C41.9225 9.85857 36.8692 10.4893 31.2524 10.4893C25.6356 10.4893 20.5823 9.85857 16.9604 8.85677C15.1433 8.35417 13.7361 7.77151 12.8036 7.16169C11.8347 6.52807 11.585 6.00914 11.585 5.68169C11.585 5.35424 11.8347 4.83531 12.8036 4.20168C13.7361 3.59186 15.1433 3.00921 16.9604 2.5066C20.5823 1.5048 25.6356 0.874106 31.2524 0.874106C36.8692 0.874106 41.9225 1.5048 45.5444 2.5066C47.3615 3.00921 48.7687 3.59186 49.7013 4.20168C50.6702 4.83531 50.9198 5.35424 50.9198 5.68169Z"/><path fill="#F73C01" fill-opacity=".2" d="M51.7939 6.55575C51.7939 17.4177 51.7939 40.2088 31.2524 40.2088C10.7109 40.2088 10.7109 17.4177 10.7109 6.55575C10.7109 2.18521 25.5707 0.874023 31.2524 0.874023C33.8747 0.874023 51.7939 1.52552 51.7939 6.55575Z"/><path stroke="#F73C01" stroke-opacity=".6" stroke-width="1.748" d="M50.9198 6.55575C50.9198 12.0133 50.9111 20.2697 48.4048 27.1566C47.1574 30.5842 45.3092 33.6179 42.5826 35.7949C39.8677 37.9625 36.2152 39.3347 31.2524 39.3347C26.2897 39.3347 22.6372 37.9625 19.9223 35.7949C17.1957 33.6179 15.3474 30.5842 14.1 27.1566C11.5937 20.2697 11.585 12.0133 11.585 6.55575C11.585 6.01274 12.0605 5.32862 13.511 4.6067C14.889 3.92088 16.8344 3.36528 19.0204 2.93347C23.3784 2.07263 28.4555 1.74813 31.2524 1.74813C32.5331 1.74813 37.6182 1.90948 42.3645 2.69104C44.7453 3.08307 46.9791 3.62169 48.5967 4.344C49.4062 4.70548 50.0088 5.09029 50.3982 5.4829C50.7761 5.86393 50.9198 6.21457 50.9198 6.55575Z"/></svg>

<svg fill="none" viewBox="0 0 63 63"><ellipse cx="31.311" cy="55.943" fill="#F73C01" fill-opacity=".2" rx="30.594" ry="6.119"/><path stroke="#F73C01" stroke-opacity=".6" stroke-width="1.748" d="M61.03 55.943c0 .104-.049.306-.358.608-.311.303-.816.638-1.546.983-1.454.688-3.614 1.33-6.354 1.878-5.465 1.093-13.053 1.775-21.461 1.775-8.41 0-15.997-.682-21.462-1.775-2.74-.548-4.9-1.19-6.354-1.878-.73-.345-1.235-.68-1.546-.983-.309-.303-.358-.504-.358-.608 0-.105.049-.306.358-.608.311-.304.816-.639 1.546-.984 1.454-.688 3.614-1.33 6.354-1.878 5.465-1.093 13.053-1.775 21.462-1.775 8.408 0 15.996.682 21.461 1.775 2.74.548 4.9 1.19 6.354 1.878.73.345 1.235.68 1.546.984.309.302.358.503.358.608z"/><path stroke="#F73C01" stroke-opacity=".6" stroke-width="4.371" d="M51.794 9.178h1.69c1.988 0 3.886.828 5.238 2.284v0a7.148 7.148 0 01.981 8.388l-4.335 7.65a6.417 6.417 0 01-1.29 1.607l-.53.477a5.473 5.473 0 01-6.562.573v0"/><ellipse cx="31.252" cy="5.682" fill="#F73C01" fill-opacity=".2" rx="20.541" ry="5.682"/><path stroke="#F73C01" stroke-opacity=".6" stroke-width="1.748" d="M50.92 5.682c0 .327-.25.846-1.219 1.48-.932.61-2.34 1.192-4.157 1.695-3.621 1.002-8.675 1.632-14.292 1.632-5.616 0-10.67-.63-14.292-1.632-1.817-.503-3.224-1.085-4.156-1.695-.97-.634-1.219-1.153-1.219-1.48 0-.328.25-.847 1.219-1.48.932-.61 2.34-1.193 4.156-1.695C20.582 1.505 25.636.874 31.252.874c5.617 0 10.67.63 14.292 1.633 1.818.502 3.225 1.085 4.157 1.695.97.633 1.219 1.152 1.219 1.48z"/><path fill="#F73C01" fill-opacity=".2" d="M51.794 6.556c0 10.862 0 33.653-20.542 33.653-20.541 0-20.541-22.791-20.541-33.653 0-4.37 14.86-5.682 20.541-5.682 2.623 0 20.542.652 20.542 5.682z"/><path stroke="#F73C01" stroke-opacity=".6" stroke-width="1.748" d="M50.92 6.556c0 5.457-.009 13.714-2.515 20.6-1.248 3.428-3.096 6.462-5.822 8.639-2.715 2.167-6.368 3.54-11.33 3.54-4.963 0-8.616-1.373-11.33-3.54-2.727-2.177-4.576-5.21-5.823-8.638-2.506-6.887-2.515-15.144-2.515-20.601 0-.543.475-1.227 1.926-1.95 1.378-.685 3.323-1.24 5.51-1.673 4.357-.86 9.434-1.185 12.231-1.185 1.281 0 6.366.161 11.113.943 2.38.392 4.614.93 6.232 1.653.81.361 1.412.746 1.801 1.139.378.38.522.732.522 1.073z"/></svg>
